svgs/sharp-light/chart-line-up-down.svg

<svg xmlns="http://www.w3.org/2000/svg" viewBox="0 0 512 512"><!--! Font Awesome Pro 6.6.0 by @fontawesome - https://fontawesome.com License - https://fontawesome.com/license (Commercial License) Copyright 2024 Fonticons, Inc. --><path d="M32 48l0-16L0 32 0 48 0 464l0 16 16 0 480 0 16 0 0-32-16 0L32 448 32 48zM352 64l0 32 16 0 57.4 0L288 233.4l-68.7-68.7L208 153.4l-11.3 11.3-96 96L89.4 272 112 294.6l11.3-11.3L208 198.6l68.7 68.7L288 278.6l11.3-11.3L448 118.6l0 57.4 0 16 32 0 0-16 0-96 0-16-16 0-96 0-16 0zm0 320l16 0 96 0 16 0 0-16 0-96 0-16-32 0 0 16 0 57.4-60.7-60.7L376 257.4 353.4 280l11.3 11.3L425.4 352 368 352l-16 0 0 32z"/></svg>

<svg xmlns="http://www.w3.org/2000/svg" viewBox="0 0 512 512"><!--! Font Awesome Pro 6.4.0 by @fontawesome - https://fontawesome.com License - https://fontawesome.com/license (Commercial License) Copyright 2023 Fonticons, Inc. --><path d="M32 48V32H0V48 464v16H16 496h16V448H496 32V48zM352 64V96h16 57.4L288 233.4l-68.7-68.7L208 153.4l-11.3 11.3-96 96L89.4 272 112 294.6l11.3-11.3L208 198.6l68.7 68.7L288 278.6l11.3-11.3L448 118.6V176v16h32V176 80 64H464 368 352zm0 320h16 96 16V368 272 256H448v16 57.4l-60.7-60.7L376 257.4 353.4 280l11.3 11.3L425.4 352H368 352v32z"/></svg>
